origin/airplane-rotation.svg

<?xml version="1.0" encoding="UTF-8" standalone="no"?>
<svg
   width="24"
   height="24"
   stroke-width="1.5"
   viewBox="0 0 24 24"
   fill="none"
   version="1.1"
   id="svg12"
   sodipodi:docname="airplane-rotation.svg"
   inkscape:version="1.2.1 (9c6d41e410, 2022-07-14)"
   xmlns:inkscape="http://www.inkscape.org/namespaces/inkscape"
   xmlns:sodipodi="http://sodipodi.sourceforge.net/DTD/sodipodi-0.dtd"
   xmlns="http://www.w3.org/2000/svg"
   xmlns:svg="http://www.w3.org/2000/svg">
  <defs
     id="defs16" />
  <sodipodi:namedview
     id="namedview14"
     pagecolor="#ffffff"
     bordercolor="#666666"
     borderopacity="1.0"
     inkscape:showpageshadow="2"
     inkscape:pageopacity="0.0"
     inkscape:pagecheckerboard="0"
     inkscape:deskcolor="#d1d1d1"
     showgrid="false"
     inkscape:zoom="34.541667"
     inkscape:cx="10.364294"
     inkscape:cy="12.014475"
     inkscape:window-width="1920"
     inkscape:window-height="1009"
     inkscape:window-x="1912"
     inkscape:window-y="-8"
     inkscape:window-maximized="1"
     inkscape:current-layer="svg12" />
  <path
     style="color:#000000;fill:currentColor;stroke-linecap:round;stroke-linejoin:round;stroke-miterlimit:1.5;-inkscape-stroke:none"
     d="m 12,8.2558594 c -0.961264,-2e-7 -1.923239,0.3646759 -2.6523437,1.09375 -1.4581802,1.4581806 -1.4581834,3.8445256 0,5.3027346 1.4582067,1.458182 3.8464987,1.458189 5.3046877,0 1.458204,-1.458205 1.458215,-3.844557 0,-5.3027346 C 13.923247,8.6205316 12.961264,8.2558596 12,8.2558594 Z m 0,1.4902344 c 0.57424,-3e-7 1.149294,0.2215714 1.591797,0.6640622 0.884982,0.88496 0.884993,2.296648 0,3.181641 -0.885009,0.885008 -2.298563,0.885016 -3.183594,0 -0.8849741,-0.88499 -0.8849574,-2.296683 0,-3.181641 C 10.850717,9.9676615 11.42576,9.746094 12,9.7460938 Z"
     id="path2" />
  <path
     style="color:#000000;fill:currentColor;stroke-linecap:round;stroke-linejoin:round;stroke-miterlimit:1.5;-inkscape-stroke:none"
     d="m 12,2.2539063 c -0.789927,0 -1.559453,0.094752 -2.296875,0.2734375 -4.2749693,1.0348714 -7.4511719,4.8928125 -7.4511719,9.4746092 0,1.284572 0.2493154,2.513415 0.703125,3.638672 0.2158316,0.535429 0.4786588,1.047213 0.78125,1.529297 A 0.74835497,0.74835497 0 0 0 4.7695312,17.40625 0.74835497,0.74835497 0 0 0 5.0039062,16.375 C 4.747618,15.966685 4.525778,15.533601 4.34375,15.082031 3.9601605,14.130891 3.75,13.093179 3.75,12.001953 3.75,8.1111584 6.4406847,4.8553354 10.054688,3.9804688 10.677664,3.8295146 11.329129,3.75 12,3.75 A 0.74835497,0.74835497 0 0 0 12.748047,3.0019531 0.74835497,0.74835497 0 0 0 12,2.2539063 Z"
     id="path4" />
  <path
     style="color:#000000;fill:currentColor;stroke-linecap:round;stroke-linejoin:round;stroke-miterlimit:1.5"
     d="M 19.328125,6.7246094 A 0.74835497,0.74835497 0 0 0 19.074219,7.7519531 C 19.822157,8.9941945 20.25,10.443341 20.25,12 c 0,3.495781 -2.173002,6.47692 -5.234375,7.681641 C 14.081581,20.048861 13.065511,20.251953 12,20.251953 A 0.74835497,0.74835497 0 0 0 11.251953,21 0.74835497,0.74835497 0 0 0 12,21.748047 c 1.255287,0 2.460099,-0.23965 3.564453,-0.673828 3.62082,-1.424877 6.183594,-4.957608 6.183594,-9.074219 0,-1.832738 -0.509318,-3.5525354 -1.392578,-5.0195313 A 0.74835497,0.74835497 0 0 0 19.328125,6.7246094 Z"
     id="path6" />
  <path
     style="color:#000000;clip-rule:evenodd;fill:currentColor;fill-rule:evenodd;stroke-linecap:round;stroke-linejoin:round;stroke-miterlimit:1.5"
     d="m 18.796875,2.8886719 c -0.541027,-0.069155 -1.054026,0.075277 -1.496094,0.3007812 -0.884136,0.4510092 -1.594541,1.2163551 -2.294922,1.9160156 a 0.750075,0.750075 0 0 0 -0.0039,0.00391 c -0.883192,0.8937283 -1.252567,2.0843485 -1.443359,3.0410156 -0.190793,0.9566671 -0.1875,1.7304688 -0.1875,1.7304688 a 0.750075,0.750075 0 0 0 0.751953,0.7480466 c 0,0 0.781918,-0.0025 1.742187,-0.195312 0.96027,-0.192858 2.150166,-0.557669 3.029297,-1.4394534 0.718514,-0.7206755 1.4685,-1.4551 1.902344,-2.3417969 C 21.013797,6.2089953 21.150086,5.7031664 21.083984,5.171875 21.017883,4.6405836 20.742335,4.1256045 20.308594,3.6914063 19.859835,3.2422204 19.337902,2.9578272 18.796875,2.8886719 Z m -0.189453,1.4882812 c 0.170001,0.02173 0.364934,0.099047 0.640625,0.375 0.254608,0.254876 0.32462,0.4360175 0.345703,0.6054688 0.02108,0.1694513 -0.01444,0.3708391 -0.144531,0.6367187 -0.26018,0.5317592 -0.906703,1.2287832 -1.617188,1.9414063 -0.522367,0.5239442 -1.451015,0.8664775 -2.261718,1.0292969 -0.338243,0.067932 -0.360812,0.044788 -0.605469,0.068359 0.02257,-0.239464 -0.0014,-0.257536 0.06445,-0.5878906 0.160178,-0.8031603 0.498546,-1.7303151 1.037109,-2.2773438 0.709618,-0.708888 1.393528,-1.3760504 1.916016,-1.6425781 0.261244,-0.1332638 0.454999,-0.1701674 0.625,-0.1484375 z"
     id="path8" />
  <path
     style="color:#000000;clip-rule:evenodd;fill:currentColor;fill-rule:evenodd;stroke-linecap:round;stroke-linejoin:round;stroke-miterlimit:1.5"
     d="m 9.8769531,13.371094 c 0,0 -0.7819313,0.0025 -1.7421875,0.195312 -0.9602562,0.192857 -2.1501759,0.557685 -3.0292969,1.439453 -0.7185545,0.720682 -1.468497,1.455085 -1.9023437,2.341797 -0.2169234,0.443357 -0.3532178,0.949172 -0.2871094,1.480469 0.066108,0.531297 0.3416453,1.04626 0.7753907,1.480469 0.4487515,0.449194 0.970691,0.733581 1.5117187,0.802734 0.5410277,0.06915 1.0540306,-0.07527 1.4960937,-0.300781 0.8841263,-0.451016 1.594557,-1.216386 2.2949219,-1.916016 a 0.750075,0.750075 0 0 0 0.00391,-0.0039 c 0.8831901,-0.893738 1.2525651,-2.08434 1.4433591,-3.041016 0.190795,-0.956676 0.1875,-1.730468 0.1875,-1.730468 A 0.750075,0.750075 0 0 0 9.8769531,13.371094 Z m -0.8417968,1.595703 c -0.022568,0.239467 0.00143,0.257531 -0.064453,0.587891 -0.1601805,0.803171 -0.4985437,1.730305 -1.0371094,2.277343 -0.7096136,0.708869 -1.3935307,1.376045 -1.9160156,1.642578 -0.2612424,0.133267 -0.4550093,0.170166 -0.625,0.148438 -0.1699907,-0.02173 -0.3649422,-0.09905 -0.640625,-0.375 C 4.4973342,18.993156 4.4273359,18.81204 4.40625,18.642578 4.3851641,18.473116 4.4206925,18.27174 4.5507812,18.005859 4.8109588,17.474098 5.4574547,16.77707 6.1679687,16.064453 c 0.5223577,-0.52393 1.4510268,-0.866479 2.2617188,-1.029297 0.3382372,-0.06793 0.3608155,-0.04479 0.6054688,-0.06836 z"
     id="path10" />
</svg>

<?xml version="1.0" encoding="UTF-8" standalone="no"?>
<svg
   width="24"
   height="24"
   stroke-width="1.5"
   viewBox="0 0 24 24"
   fill="none"
   version="1.1"
   id="svg5"
   sodipodi:docname="airplane-rotation.svg"
   inkscape:version="1.3.1 (91b66b0783, 2023-11-16)"
   xmlns:inkscape="http://www.inkscape.org/namespaces/inkscape"
   xmlns:sodipodi="http://sodipodi.sourceforge.net/DTD/sodipodi-0.dtd"
   xmlns="http://www.w3.org/2000/svg"
   xmlns:svg="http://www.w3.org/2000/svg">
  <defs
     id="defs5" />
  <sodipodi:namedview
     id="namedview5"
     pagecolor="#ffffff"
     bordercolor="#666666"
     borderopacity="1.0"
     inkscape:showpageshadow="2"
     inkscape:pageopacity="0.0"
     inkscape:pagecheckerboard="0"
     inkscape:deskcolor="#d1d1d1"
     inkscape:zoom="33.875"
     inkscape:cx="11.98524"
     inkscape:cy="12"
     inkscape:window-width="1920"
     inkscape:window-height="1009"
     inkscape:window-x="1912"
     inkscape:window-y="-8"
     inkscape:window-maximized="1"
     inkscape:current-layer="svg5" />
  <path
     style="color:#000000;fill:currentColor;stroke-linecap:round;stroke-linejoin:round;-inkscape-stroke:none"
     d="m 12,8.2558594 c -0.961264,-2e-7 -1.923239,0.3646759 -2.6523437,1.09375 -1.4581802,1.4581806 -1.4581834,3.8445256 0,5.3027346 1.4582067,1.458182 3.8464987,1.458189 5.3046877,0 1.458204,-1.458205 1.458215,-3.844557 0,-5.3027346 C 13.923247,8.6205316 12.961264,8.2558596 12,8.2558594 Z m 0,1.4902344 c 0.57424,-3e-7 1.149294,0.2215714 1.591797,0.6640622 0.884982,0.88496 0.884993,2.296648 0,3.181641 -0.885009,0.885008 -2.298563,0.885016 -3.183594,0 -0.8849741,-0.88499 -0.8849574,-2.296683 0,-3.181641 C 10.850717,9.9676615 11.42576,9.746094 12,9.7460938 Z"
     id="path1" />
  <path
     style="color:#000000;fill:currentColor;stroke-linecap:round;stroke-linejoin:round;-inkscape-stroke:none"
     d="m 12,2.2519531 c -0.790058,0 -1.559327,0.094721 -2.296875,0.2734375 -4.2756958,1.0350473 -7.4511719,4.8940062 -7.4511719,9.4765624 0,1.284784 0.2492382,2.515177 0.703125,3.640625 0.2157451,0.534932 0.4789142,1.04762 0.78125,1.529297 a 0.75,0.75 0 0 0 1.0332031,0.236328 0.75,0.75 0 0 0 0.2363282,-1.035156 C 4.7496221,15.964813 4.527694,15.531556 4.3457031,15.080078 c -0.3835123,-0.950949 -0.59375,-1.987111 -0.59375,-3.078125 0,-3.8900351 2.6894581,-7.1448403 6.3027349,-8.0195311 a 0.750075,0.750075 0 0 0 0.002,0 C 10.679492,3.8314982 11.32926,3.7519531 12,3.7519531 a 0.75,0.75 0 0 0 0.75,-0.75 0.75,0.75 0 0 0 -0.75,-0.75 z"
     id="path2" />
  <path
     style="color:#000000;fill:currentColor;stroke-linecap:round;stroke-linejoin:round;-inkscape-stroke:none"
     d="m 19.896484,6.6386719 a 0.75,0.75 0 0 0 -0.568359,0.085937 0.75,0.75 0 0 0 -0.255859,1.0292968 C 19.820055,8.9959006 20.25,10.443645 20.25,12 c 0,3.495099 -2.173617,6.477162 -5.234375,7.681641 v -0.002 C 14.081768,20.046835 13.065302,20.25 12,20.25 A 0.75,0.75 0 0 0 11.25,21 0.75,0.75 0 0 0 12,21.75 c 1.255495,0 2.459912,-0.239576 3.564453,-0.673828 C 19.185888,19.651054 21.75,16.117294 21.75,12 21.75,10.166959 21.240831,8.4477117 20.357422,6.9804687 A 0.75,0.75 0 0 0 19.896484,6.6386719 Z"
     id="path3" />
  <path
     style="color:#000000;clip-rule:evenodd;fill:currentColor;fill-rule:evenodd;stroke-linecap:round;stroke-linejoin:round;-inkscape-stroke:none"
     d="m 18.796875,2.8886719 c -0.541027,-0.069155 -1.054026,0.075277 -1.496094,0.3007812 -0.884136,0.4510092 -1.594541,1.2163551 -2.294922,1.9160156 a 0.750075,0.750075 0 0 0 -0.0039,0.00391 c -0.883192,0.8937283 -1.252567,2.0843485 -1.443359,3.0410156 -0.190793,0.9566671 -0.1875,1.7304688 -0.1875,1.7304688 a 0.750075,0.750075 0 0 0 0.751953,0.7480466 c 0,0 0.781918,-0.0025 1.742187,-0.195312 0.96027,-0.192858 2.150166,-0.557669 3.029297,-1.4394534 0.718514,-0.7206755 1.4685,-1.4551 1.902344,-2.3417969 C 21.013797,6.2089953 21.150086,5.7031664 21.083984,5.171875 21.017883,4.6405836 20.742335,4.1256045 20.308594,3.6914063 19.859835,3.2422204 19.337902,2.9578272 18.796875,2.8886719 Z m -0.189453,1.4882812 c 0.170001,0.02173 0.364934,0.099047 0.640625,0.375 0.254608,0.254876 0.32462,0.4360175 0.345703,0.6054688 0.02108,0.1694513 -0.01444,0.3708391 -0.144531,0.6367187 -0.26018,0.5317592 -0.906703,1.2287832 -1.617188,1.9414063 -0.522367,0.5239442 -1.451015,0.8664775 -2.261718,1.0292969 -0.338243,0.067932 -0.360812,0.044788 -0.605469,0.068359 0.02257,-0.239464 -0.0014,-0.257536 0.06445,-0.5878906 0.160178,-0.8031603 0.498546,-1.7303151 1.037109,-2.2773438 0.709618,-0.708888 1.393528,-1.3760504 1.916016,-1.6425781 0.261244,-0.1332638 0.454999,-0.1701674 0.625,-0.1484375 z"
     id="path4" />
  <path
     style="color:#000000;clip-rule:evenodd;fill:currentColor;fill-rule:evenodd;stroke-linecap:round;stroke-linejoin:round;-inkscape-stroke:none"
     d="m 9.8769531,13.371094 c 0,0 -0.7819313,0.0025 -1.7421875,0.195312 -0.9602562,0.192857 -2.1501759,0.557685 -3.0292969,1.439453 -0.7185545,0.720682 -1.468497,1.455085 -1.9023437,2.341797 -0.2169234,0.443357 -0.3532178,0.949172 -0.2871094,1.480469 0.066108,0.531297 0.3416453,1.04626 0.7753907,1.480469 0.4487515,0.449194 0.970691,0.733581 1.5117187,0.802734 0.5410277,0.06915 1.0540306,-0.07527 1.4960937,-0.300781 0.8841263,-0.451016 1.594557,-1.216386 2.2949219,-1.916016 a 0.750075,0.750075 0 0 0 0.00391,-0.0039 c 0.8831901,-0.893738 1.2525651,-2.08434 1.4433591,-3.041016 0.190795,-0.956676 0.1875,-1.730468 0.1875,-1.730468 A 0.750075,0.750075 0 0 0 9.8769531,13.371094 Z m -0.8417968,1.595703 c -0.022568,0.239467 0.00143,0.257531 -0.064453,0.587891 -0.1601805,0.803171 -0.4985437,1.730305 -1.0371094,2.277343 -0.7096136,0.708869 -1.3935307,1.376045 -1.9160156,1.642578 -0.2612424,0.133267 -0.4550093,0.170166 -0.625,0.148438 -0.1699907,-0.02173 -0.3649422,-0.09905 -0.640625,-0.375 C 4.4973342,18.993156 4.4273359,18.81204 4.40625,18.642578 4.3851641,18.473116 4.4206925,18.27174 4.5507812,18.005859 4.8109588,17.474098 5.4574547,16.77707 6.1679687,16.064453 c 0.5223577,-0.52393 1.4510268,-0.866479 2.2617188,-1.029297 0.3382372,-0.06793 0.3608155,-0.04479 0.6054688,-0.06836 z"
     id="path5" />
</svg>
